src/svg/uf080-bar-chart,bar-chart-o.svg

<!-- Generated by IcoMoon.io -->
<svg version="1.1" xmlns="http://www.w3.org/2000/svg" width="37" height="32" viewBox="0 0 37 32">
<path d="M11.429 16v9.143h-4.571v-9.143h4.571zM18.286 6.857v18.286h-4.571v-18.286h4.571zM36.571 27.429v2.286h-36.571v-27.429h2.286v25.143h34.286zM25.143 11.429v13.714h-4.571v-13.714h4.571zM32 4.571v20.571h-4.571v-20.571h4.571z"></path>
</svg>

<svg xmlns="http://www.w3.org/2000/svg" width="37" height="32"><path d="M11.429 16v9.143H6.858V16h4.571zm6.857-9.143v18.286h-4.571V6.857h4.571zm18.285 20.572v2.286H0V2.286h2.286v25.143h34.286zm-11.428-16v13.714h-4.571V11.429h4.571zM32 4.571v20.571h-4.571V4.571H32z"/></svg>
